static/img/kroki/9079c0884a594386a0f8543f4e98c5aa.svg

<?xml version="1.0" encoding="us-ascii" standalone="no"?><svg xmlns="http://www.w3.org/2000/svg" xmlns:xlink="http://www.w3.org/1999/xlink" contentStyleType="text/css" height="252px" preserveAspectRatio="none" style="width:581px;height:252px;" version="1.1" viewBox="0 0 581 252" width="581px" zoomAndPan="magnify"><defs/><g><!--class kubernetes_controller_revision--><g id="elem_kubernetes_controller_revision"><rect codeLine="22" fill="#3D176E" height="39.7891" id="kubernetes_controller_revision" rx="2.5" ry="2.5" style="stroke:#000D19;stroke-width:0.5;" width="300" x="22.73" y="206.58"/><ellipse cx="37.73" cy="226.4745" fill="#ADD1B2" rx="11" ry="11" style="stroke:#181818;stroke-width:1.0;"/><path d="M40.6988,232.1152 Q40.1206,232.412 39.48,232.5527 Q38.8394,232.7089 38.1363,232.7089 Q35.6363,232.7089 34.3081,231.0683 Q32.9956,229.412 32.9956,226.287 Q32.9956,223.162 34.3081,221.5058 Q35.6363,219.8495 38.1363,219.8495 Q38.8394,219.8495 39.48,220.0058 Q40.1363,220.162 40.6988,220.4589 L40.6988,223.1777 Q40.0738,222.5995 39.48,222.3339 Q38.8863,222.0527 38.2613,222.0527 Q36.9175,222.0527 36.23,223.1308 Q35.5425,224.1933 35.5425,226.287 Q35.5425,228.3808 36.23,229.4589 Q36.9175,230.5214 38.2613,230.5214 Q38.8863,230.5214 39.48,230.2558 Q40.0738,229.9745 40.6988,229.3964 L40.6988,232.1152 Z " fill="#000000"/><text fill="#D9B8FF" font-family="Helvetica" font-size="17" lengthAdjust="spacing" textLength="258" x="56.73" y="232.3598">kubernetes_controller_revision</text></g><!--class kubernetes_daemon_set--><g id="elem_kubernetes_daemon_set"><rect codeLine="24" fill="#3D176E" height="39.7891" id="kubernetes_daemon_set" rx="2.5" ry="2.5" style="stroke:#000D19;stroke-width:0.5;" width="247" x="49.23" y="106.79"/><ellipse cx="64.23" cy="126.6845" fill="#ADD1B2" rx="11" ry="11" style="stroke:#181818;stroke-width:1.0;"/><path d="M67.1988,132.3252 Q66.6206,132.622 65.98,132.7627 Q65.3394,132.9189 64.6363,132.9189 Q62.1363,132.9189 60.8081,131.2783 Q59.4956,129.622 59.4956,126.497 Q59.4956,123.372 60.8081,121.7158 Q62.1363,120.0595 64.6363,120.0595 Q65.3394,120.0595 65.98,120.2158 Q66.6363,120.372 67.1988,120.6689 L67.1988,123.3877 Q66.5738,122.8095 65.98,122.5439 Q65.3863,122.2627 64.7613,122.2627 Q63.4175,122.2627 62.73,123.3408 Q62.0425,124.4033 62.0425,126.497 Q62.0425,128.5908 62.73,129.6689 Q63.4175,130.7314 64.7613,130.7314 Q65.3863,130.7314 65.98,130.4658 Q66.5738,130.1845 67.1988,129.6064 L67.1988,132.3252 Z " fill="#000000"/><text fill="#D9B8FF" font-family="Helvetica" font-size="17" lengthAdjust="spacing" textLength="205" x="83.23" y="132.5698">kubernetes_daemon_set</text></g><!--class kubernetes_namespace--><g id="elem_kubernetes_namespace"><rect codeLine="26" fill="#3D176E" height="39.7891" id="kubernetes_namespace" rx="2.5" ry="2.5" style="stroke:#000D19;stroke-width:0.5;" width="239" x="53.23" y="7"/><ellipse cx="68.23" cy="26.8945" fill="#ADD1B2" rx="11" ry="11" style="stroke:#181818;stroke-width:1.0;"/><path d="M71.1988,32.5352 Q70.6206,32.832 69.98,32.9727 Q69.3394,33.1289 68.6363,33.1289 Q66.1363,33.1289 64.8081,31.4883 Q63.4956,29.832 63.4956,26.707 Q63.4956,23.582 64.8081,21.9258 Q66.1363,20.2695 68.6363,20.2695 Q69.3394,20.2695 69.98,20.4258 Q70.6363,20.582 71.1988,20.8789 L71.1988,23.5977 Q70.5738,23.0195 69.98,22.7539 Q69.3863,22.4727 68.7613,22.4727 Q67.4175,22.4727 66.73,23.5508 Q66.0425,24.6133 66.0425,26.707 Q66.0425,28.8008 66.73,29.8789 Q67.4175,30.9414 68.7613,30.9414 Q69.3863,30.9414 69.98,30.6758 Q70.5738,30.3945 71.1988,29.8164 L71.1988,32.5352 Z " fill="#000000"/><text fill="#D9B8FF" font-family="Helvetica" font-size="17" lengthAdjust="spacing" textLength="197" x="87.23" y="32.7798">kubernetes_namespace</text></g><!--class kubernetes_stateful_set--><g id="elem_kubernetes_stateful_set"><rect codeLine="28" fill="#3D176E" height="39.7891" id="kubernetes_stateful_set" rx="2.5" ry="2.5" style="stroke:#000D19;stroke-width:0.5;" width="243" x="331.23" y="106.79"/><ellipse cx="346.23" cy="126.6845" fill="#ADD1B2" rx="11" ry="11" style="stroke:#181818;stroke-width:1.0;"/><path d="M349.1988,132.3252 Q348.6206,132.622 347.98,132.7627 Q347.3394,132.9189 346.6363,132.9189 Q344.1363,132.9189 342.8081,131.2783 Q341.4956,129.622 341.4956,126.497 Q341.4956,123.372 342.8081,121.7158 Q344.1363,120.0595 346.6363,120.0595 Q347.3394,120.0595 347.98,120.2158 Q348.6363,120.372 349.1988,120.6689 L349.1988,123.3877 Q348.5738,122.8095 347.98,122.5439 Q347.3863,122.2627 346.7613,122.2627 Q345.4175,122.2627 344.73,123.3408 Q344.0425,124.4033 344.0425,126.497 Q344.0425,128.5908 344.73,129.6689 Q345.4175,130.7314 346.7613,130.7314 Q347.3863,130.7314 347.98,130.4658 Q348.5738,130.1845 349.1988,129.6064 L349.1988,132.3252 Z " fill="#000000"/><text fill="#D9B8FF" font-family="Helvetica" font-size="17" lengthAdjust="spacing" textLength="201" x="365.23" y="132.5698">kubernetes_stateful_set</text></g><!--link kubernetes_daemon_set to kubernetes_controller_revision--><g id="link_kubernetes_daemon_set_kubernetes_controller_revision"><path codeLine="30" d="M172.73,147.01 C172.73,164.15 172.73,183.06 172.73,200.2 " fill="none" id="kubernetes_daemon_set-to-kubernetes_controller_revision" style="stroke:#1A83AF;stroke-width:2.0;"/><polygon fill="#1A83AF" points="172.73,206.2,176.73,197.2,172.73,201.2,168.73,197.2,172.73,206.2" style="stroke:#1A83AF;stroke-width:2.0;"/></g><!--link kubernetes_namespace to kubernetes_controller_revision--><g id="link_kubernetes_namespace_kubernetes_controller_revision"><path codeLine="31" d="M108.21,47.22 C79.47,59.41 48.4,78.36 31.73,106.79 C6,150.68 61.068,183.5551 110.708,203.8951 " fill="none" id="kubernetes_namespace-to-kubernetes_controller_revision" style="stroke:#1A83AF;stroke-width:2.0;"/><polygon fill="#1A83AF" points="116.26,206.17,109.4486,199.0563,111.6333,204.2742,106.4154,206.4589,116.26,206.17" style="stroke:#1A83AF;stroke-width:2.0;"/></g><!--link kubernetes_namespace to kubernetes_daemon_set--><g id="link_kubernetes_namespace_kubernetes_daemon_set"><path codeLine="32" d="M172.73,47.22 C172.73,64.36 172.73,83.27 172.73,100.41 " fill="none" id="kubernetes_namespace-to-kubernetes_daemon_set" style="stroke:#1A83AF;stroke-width:2.0;"/><polygon fill="#1A83AF" points="172.73,106.41,176.73,97.41,172.73,101.41,168.73,97.41,172.73,106.41" style="stroke:#1A83AF;stroke-width:2.0;"/></g><!--link kubernetes_namespace to kubernetes_stateful_set--><g id="link_kubernetes_namespace_kubernetes_stateful_set"><path codeLine="33" d="M228.05,47.22 C277.14,64.36 342.8057,87.2911 391.8657,104.4311 " fill="none" id="kubernetes_namespace-to-kubernetes_stateful_set" style="stroke:#1A83AF;stroke-width:2.0;"/><polygon fill="#1A83AF" points="397.53,106.41,390.3529,99.6655,392.8098,104.7609,387.7143,107.2178,397.53,106.41" style="stroke:#1A83AF;stroke-width:2.0;"/></g><!--link kubernetes_stateful_set to kubernetes_controller_revision--><g id="link_kubernetes_stateful_set_kubernetes_controller_revision"><path codeLine="34" d="M397.41,147.01 C348.32,164.15 282.6543,187.0811 233.5943,204.2211 " fill="none" id="kubernetes_stateful_set-to-kubernetes_controller_revision" style="stroke:#1A83AF;stroke-width:2.0;"/><polygon fill="#1A83AF" points="227.93,206.2,237.7457,207.0078,232.6502,204.5509,235.1071,199.4555,227.93,206.2" style="stroke:#1A83AF;stroke-width:2.0;"/></g><!--SRC=[jP91Jy9048Nl_HMRS2QXDWfSJ2e9qGinuiqOCdHdOTFjBfcTGj3utosYkBO5mi7hlc_Vl3UPfPOei5ZnLXHOp95yv7DjLq1GY9J8RKREE18TfK0b_ReuTfRF0XCeKDoZMIFh3Eh4yr9dkKNlnLKWtK6MByYLLkxjcS3wIaBB0JKou7tAJ7fUCWPXv70-KAfEraqxYOpxDzZ074caRwJNwybuM4VEZZhP-q1CzHkAE5pQn34sOZP6V54dK-w886IZw8z-DECZIAdjGbm7Rq_xJ6IH_hnFbo3TPaShC3uSuna97MzNE6gqmk50gduh_70CpdQR4tbP7Qf5HZ_BgWxaZ46Q4QwrrywAz-YZ2Kh0mjcPHsxNRRM8wi0oR9Sz0wCgpS6WtRhxqedJGPAENxktPs96hSF_pU0tv6N_mkBHiOLSaFeJ]--></g></svg>

<svg xmlns="http://www.w3.org/2000/svg" width="581" height="252" viewBox="0 0 581 252"><rect width="300" height="39.789" x="22.73" y="206.58" fill="#3D176E" rx="2.5" ry="2.5" style="stroke:#000d19;stroke-width:.5"/><circle cx="37.73" cy="226.475" r="11" fill="#ADD1B2" style="stroke:#181818;stroke-width:1"/><path d="M40.699 232.115q-.578.297-1.219.438-.64.156-1.344.156-2.5 0-3.828-1.64-1.312-1.657-1.312-4.782t1.312-4.781q1.328-1.656 3.828-1.656.703 0 1.344.156.656.156 1.219.453v2.719q-.625-.578-1.219-.844-.594-.281-1.219-.281-1.344 0-2.031 1.078-.687 1.062-.687 3.156t.687 3.172q.688 1.062 2.031 1.062.625 0 1.219-.265.594-.281 1.219-.86z"/><text x="56.73" y="232.36" fill="#D9B8FF" font-family="Helvetica" font-size="17" textLength="258">kubernetes_controller_revision</text><rect width="247" height="39.789" x="49.23" y="106.79" fill="#3D176E" rx="2.5" ry="2.5" style="stroke:#000d19;stroke-width:.5"/><circle cx="64.23" cy="126.684" r="11" fill="#ADD1B2" style="stroke:#181818;stroke-width:1"/><path d="M67.199 132.325q-.578.297-1.219.438-.64.156-1.344.156-2.5 0-3.828-1.64-1.312-1.657-1.312-4.782t1.312-4.781q1.328-1.656 3.828-1.656.703 0 1.344.156.656.156 1.219.453v2.719q-.625-.579-1.219-.844-.594-.281-1.219-.281-1.343 0-2.031 1.078-.687 1.062-.687 3.156t.687 3.172q.688 1.062 2.031 1.062.625 0 1.219-.265.594-.281 1.219-.86z"/><text x="83.23" y="132.57" fill="#D9B8FF" font-family="Helvetica" font-size="17" textLength="205">kubernetes_daemon_set</text><rect width="239" height="39.789" x="53.23" y="7" fill="#3D176E" rx="2.5" ry="2.5" style="stroke:#000d19;stroke-width:.5"/><circle cx="68.23" cy="26.895" r="11" fill="#ADD1B2" style="stroke:#181818;stroke-width:1"/><path d="M71.199 32.535q-.578.297-1.219.438-.64.156-1.344.156-2.5 0-3.828-1.64-1.312-1.657-1.312-4.782t1.312-4.781q1.328-1.656 3.828-1.656.703 0 1.344.156.656.156 1.219.453v2.719q-.625-.578-1.219-.844-.594-.281-1.219-.281-1.343 0-2.031 1.078-.687 1.062-.687 3.156t.687 3.172q.688 1.062 2.031 1.062.625 0 1.219-.265.594-.281 1.219-.86z"/><text x="87.23" y="32.78" fill="#D9B8FF" font-family="Helvetica" font-size="17" textLength="197">kubernetes_namespace</text><rect width="243" height="39.789" x="331.23" y="106.79" fill="#3D176E" rx="2.5" ry="2.5" style="stroke:#000d19;stroke-width:.5"/><circle cx="346.23" cy="126.684" r="11" fill="#ADD1B2" style="stroke:#181818;stroke-width:1"/><path d="M349.199 132.325q-.578.297-1.219.438-.64.156-1.344.156-2.5 0-3.828-1.64-1.312-1.657-1.312-4.782t1.312-4.781q1.328-1.656 3.828-1.656.703 0 1.344.156.656.156 1.219.453v2.719q-.625-.579-1.219-.844-.594-.281-1.219-.281-1.344 0-2.031 1.078-.687 1.062-.687 3.156t.687 3.172q.688 1.062 2.031 1.062.625 0 1.219-.265.594-.281 1.219-.86z"/><text x="365.23" y="132.57" fill="#D9B8FF" font-family="Helvetica" font-size="17" textLength="201">kubernetes_stateful_set</text><path fill="none" d="M172.73 147.01v53.19" style="stroke:#1a83af;stroke-width:2"/><path fill="#1A83AF" d="m172.73 206.2 4-9-4 4-4-4z" style="stroke:#1a83af;stroke-width:2"/><path fill="none" d="M108.21 47.22C79.47 59.41 48.4 78.36 31.73 106.79 6 150.68 61.068 183.555 110.708 203.895" style="stroke:#1a83af;stroke-width:2"/><path fill="#1A83AF" d="m116.26 206.17-6.811-7.114 2.184 5.218-5.218 2.185z" style="stroke:#1a83af;stroke-width:2"/><path fill="none" d="M172.73 47.22v53.19" style="stroke:#1a83af;stroke-width:2"/><path fill="#1A83AF" d="m172.73 106.41 4-9-4 4-4-4z" style="stroke:#1a83af;stroke-width:2"/><path fill="none" d="M228.05 47.22c49.09 17.14 114.756 40.071 163.816 57.211" style="stroke:#1a83af;stroke-width:2"/><path fill="#1A83AF" d="m397.53 106.41-7.177-6.745 2.457 5.096-5.096 2.457z" style="stroke:#1a83af;stroke-width:2"/><path fill="none" d="M397.41 147.01c-49.09 17.14-114.756 40.071-163.816 57.211" style="stroke:#1a83af;stroke-width:2"/><path fill="#1A83AF" d="m227.93 206.2 9.816.808-5.096-2.457 2.457-5.095z" style="stroke:#1a83af;stroke-width:2"/></svg>
